X:10
T:Thelma MacPherson
R:reel
C:Jerry Holland, SOCAN
O:20th Century Cape Breton
S:Tune of the Month,November1998
D:Fiddler's Choice, Odyssey Records,1999
A:<http://www.jerryholland.com>
N:Contacts ...
N:..... Jerry Holland <jerry@cranfordpub.com>
N:Tune books, related recordings
N:..... Cranford Publications <http://www.cranfordpub.com>
H:Copyrights - www.fiddlesticksmusic.com (SOCAN)
Z:Paul Stewart Cranford <psc@cranfordpub.com>
Q:333
L:1/8
M:C|
K:A
B|ABcf eccB|ABcA dAFB|ABcf eccB|AGFG AA,A,B|!
ABcf eccB|ABcA dAFD|EFEC EFAG|FDEC A,/A,/A, A,||!
g|abaf aeeg|aece fBBg|abaf aecA|dedB cAAg|!
abaf aeeg|aece fBBg|agfe dcBA|AGFG AA,A,|]!
